usr/share/icons/biglinux-icons-material/24/devices/network-vpn.svg

<svg width="24" height="24" version="1.1" xmlns="http://www.w3.org/2000/svg">
 <defs>
  <style id="current-color-scheme" type="text/css">.ColorScheme-Text {
        color:#363636;
      }</style>
 </defs>
 <path class="ColorScheme-Text" d="m11.951 7.9998a2 2 0 0 0-1.9512 2 2 2 0 0 0 0.8418 1.6309l-0.8418 3.3691h4l-0.8418-3.3691a2 2 0 0 0 0.8418-1.6309 2 2 0 0 0-2-2 2 2 0 0 0-0.04883 0zm0.04883 1a1 1 0 0 1 1 1 1 1 0 0 1-1 1 1 1 0 0 1-1-1 1 1 0 0 1 1-1z" fill="currentColor"/>
 <path class="ColorScheme-Text" d="m11.639 3.0681-6 2.3203c-0.38533 0.14935-0.63912 0.52033-0.63867 0.93359v6.6777c2.199e-4 3.6617 2.6786 6.4307 6.2891 7.8008l0.35547 0.13477c0.2284 0.08658 0.48058 0.08658 0.70898 0l0.35547-0.13477h0.0019c3.6106-1.3701 6.2888-4.1391 6.2891-7.8008v-6.6777c-3.57e-4 -0.41255-0.254-0.78255-0.63867-0.93164l-6-2.3223c-0.15962-0.068309-0.26844-0.068309-0.3614-0.068309s-0.21439 0-0.36133 0.068359zm0.36133 0.93164 6 2.3223v6.6777c-2e-4 3.1836-2.2835 5.5898-5.6445 6.8652l-0.35547 0.13477-0.35547-0.13477c-3.3609-1.2754-5.6443-3.6816-5.6445-6.8652v-6.6777l6-2.3223z" fill="currentColor"/>
</svg>

<svg xmlns="http://www.w3.org/2000/svg" width="24" height="24"><defs><style id="current-color-scheme" type="text/css">.ColorScheme-Text{color:#dedede}</style></defs><path fill="currentColor" d="M11.951 8A2 2 0 0 0 10 10a2 2 0 0 0 .842 1.63L10 15h4l-.842-3.37A2 2 0 0 0 14 10a2 2 0 0 0-2-2 2 2 0 0 0-.049 0zM12 9a1 1 0 0 1 1 1 1 1 0 0 1-1 1 1 1 0 0 1-1-1 1 1 0 0 1 1-1z" class="ColorScheme-Text"/><path fill="currentColor" d="m11.639 3.068-6 2.32A1 1 0 0 0 5 6.322V13c0 3.661 2.679 6.43 6.29 7.8l.355.135a1 1 0 0 0 .709 0l.355-.135h.002c3.61-1.37 6.289-4.139 6.29-7.8V6.322a1 1 0 0 0-.64-.932l-6-2.322C12.203 3 12.094 3 12.002 3s-.215 0-.362.068zM12 4l6 2.322V13c0 3.183-2.283 5.59-5.644 6.865L12 20l-.355-.135C8.284 18.59 6 16.183 6 13V6.322L12 4z" class="ColorScheme-Text"/></svg>
